X:1
T:Title
%%score { 1 | 2 }
L:1/8
Q:1/4=100
M:4/4
K:Ab
V:1 treble nm="Grand Piano"
V:2 bass 
V:1
 [CE]2 [DF]>[CE] [CE]2 [CEA]>[Ec] | [FB]2 F2 F4 | G2 G>A B2 c>d | c2 B2 B4 | %4
w: J.~J.~Jelley * * * * *||||
 [Ec]2 [CEA]>[CEA] [Ec]2 [_Ge]>[Ge] |[M:9/8] [Fe]2 [Fd]- [Fd] [Fd]2- [Fd][Fd]>[Fd] | %6
w: ||
[M:4/4] c3 B AGFG | [CA]6 z2 | G2 G>A [GB]4 | [FA]2 [EB]>[FB] [=Ec]4 | %10
w: ||||
 [Ed]2 [Ed]>[Ed] [Ec]2 [CEA]>[CEA] | G2 B2 B4 | [Ec]2 [CEA]>[CEA] [Ec]2 [_Ge]>[Ge] | %13
w: |||
[M:9/8] [Fe]2 [Fd]- [Fd] [Fd]2- [Fd][Fd]>[Fd] |[M:4/4] c3 B AGFG | [CA]6 z2 |] %16
w: |||
V:2
 [A,,A,]2 [A,,A,]>[A,,A,] [A,,A,]2 A,,>[A,,A,] | [D,A,]2 [D,A,D]2 [D,A,D]4 | %2
 [E,D]2 [E,D]>[E,C] [E,G,E]2 [E,A,E]>[E,B,E] | [E,A,E]2 [E,G,E]2 [E,G,E]4 | %4
 [A,,A,]2 A,,>A,, [A,,A,]2 [C,A,]>[C,A,] | %5
[M:9/8] [D,A,]2 [D,A,]- [D,A,] [D,A,]2- [D,A,][D,A,]>[D,A,] | %6
[M:4/4] [E,A,E]3 [E,G,D] [E,A,C][E,B,D][E,B,D][E,B,D] | [A,,A,]6 z2 | %8
 [E,B,E]2 [E,B,E]>[E,CE] [E,D]4 | [F,C]2 [D,F,]>[D,F,] [C,G,]4 | %10
 [B,,G,]2 [B,,G,]>[B,,G,] [A,,A,]2 A,,>A,, | [E,B,E]2 [E,G,E]2 [E,G,E]4 | %12
 [A,,A,]2 A,,>A,, [A,,A,]2 [C,A,]>[C,A,] | %13
[M:9/8] [D,A,]2 [D,A,]- [D,A,] [D,A,]2- [D,A,][D,A,]>[D,A,] | %14
[M:4/4] [E,A,E]3 [E,G,D] [E,A,C][E,B,D][E,B,D][E,B,D] | [A,,A,]6 z2 |] %16

